icons/glyphs/glyph-clock.svg

<?xml version="1.0" encoding="UTF-8" standalone="no"?><svg height="16" viewBox="0 0 4.2333332 4.2333332" width="16" xmlns="http://www.w3.org/2000/svg"><sodipodi:namedview/><metadata><rdf:RDF><cc:Work><dc:format>image/svg+xml</dc:format><dc:type/><dc:title/></cc:Work></rdf:RDF></metadata><path d="m8 0a8.0000002 8.0000002 0 0 0 -8 8 8.0000002 8.0000002 0 0 0 8 8 8.0000002 8.0000002 0 0 0 8-8 8.0000002 8.0000002 0 0 0 -8-8zm-.09375 1.3261719c.5251405-.0539286 1.0455208.3685701 1.0898438.8964843.01067 1.8726079.0008862 3.7463603.0039062 5.6191407l3.513672.9414062c.425652.0576534.811717.3729879.904297.8007813.168027.6511856-.478812 1.3251836-1.134766 1.2011716l-4.3808592-1.1992185c-.4577606-.0379317-.8604035-.4312082-.8984376-.890625-.00881-2.0770713-.0014562-4.1552238-.0039062-6.2324219-.0721092-.5409899.3558165-1.0982937.90625-1.1367187z" fill="#d0d0d0" stroke-width="6.400001" transform="scale(.26458333)"/></svg>

<?xml version="1.0" encoding="UTF-8" standalone="no"?>
<!-- Created with Inkscape (http://www.inkscape.org/) -->

<svg
   xmlns:dc="http://purl.org/dc/elements/1.1/"
   xmlns:cc="http://creativecommons.org/ns#"
   xmlns:rdf="http://www.w3.org/1999/02/22-rdf-syntax-ns#"
   xmlns:svg="http://www.w3.org/2000/svg"
   xmlns="http://www.w3.org/2000/svg"
   xmlns:sodipodi="http://sodipodi.sourceforge.net/DTD/sodipodi-0.dtd"
   xmlns:inkscape="http://www.inkscape.org/namespaces/inkscape"
   width="16"
   height="16"
   viewBox="0 0 4.2333332 4.2333332"
   version="1.1"
   id="svg8"
   inkscape:version="0.92+devel (7f3bd2b258, 2017-08-07, custom)"
   sodipodi:docname="glyph-clock.svg">
  <defs
     id="defs2" />
  <sodipodi:namedview
     id="base"
     pagecolor="#002466"
     bordercolor="#ffffff"
     borderopacity="0.38039216"
     inkscape:pageopacity="1"
     inkscape:pageshadow="2"
     inkscape:zoom="40.551468"
     inkscape:cx="7.9262331"
     inkscape:cy="8.5907357"
     inkscape:document-units="px"
     inkscape:current-layer="svg8"
     inkscape:document-rotation="0"
     showgrid="false"
     inkscape:showpageshadow="false"
     borderlayer="true"
     inkscape:window-width="1920"
     inkscape:window-height="1027"
     inkscape:window-x="0"
     inkscape:window-y="24"
     inkscape:window-maximized="1"
     units="px"
     inkscape:snap-object-midpoints="true"
     inkscape:snap-center="true"
     inkscape:snap-page="true" />
  <metadata
     id="metadata5">
    <rdf:RDF>
      <cc:Work
         rdf:about="">
        <dc:format>image/svg+xml</dc:format>
        <dc:type
           rdf:resource="http://purl.org/dc/dcmitype/StillImage" />
        <dc:title />
      </cc:Work>
    </rdf:RDF>
  </metadata>
  <path
     style="fill:#d0d0d0;stroke-width:6.40000057"
     d="M 8 0 A 8.0000002 8.0000002 0 0 0 0 8 A 8.0000002 8.0000002 0 0 0 8 16 A 8.0000002 8.0000002 0 0 0 16 8 A 8.0000002 8.0000002 0 0 0 8 0 z M 7.90625 1.3261719 C 8.4313905 1.2722433 8.9517708 1.694742 8.9960938 2.2226562 C 9.0067638 4.0952641 8.99698 5.9690165 9 7.8417969 L 12.513672 8.7832031 C 12.939324 8.8408565 13.325389 9.156191 13.417969 9.5839844 C 13.585996 10.23517 12.939157 10.909168 12.283203 10.785156 L 7.9023438 9.5859375 C 7.4445832 9.5480058 7.0419403 9.1547293 7.0039062 8.6953125 C 6.9950962 6.6182412 7.00245 4.5400887 7 2.4628906 C 6.9278908 1.9219007 7.3558165 1.3645969 7.90625 1.3261719 z "
     transform="scale(0.26458333)"
     id="path814"
     inkscape:label="#" />
</svg>
